assets/play-circle-svgrepo-com.svg

<svg fill="none" height="64" stroke="#000" viewBox="0 0 24 24" width="64" xmlns="http://www.w3.org/2000/svg"><path d="m11.9688 2c-5.52005 0-10.00005 4.48-10.00005 10s4.48 10 10.00005 10c5.52 0 10-4.48 10-10s-4.47-10-10-10zm3 12.23-2.9001 1.67c-.36.21-.7599.31-1.15.31-.3999 0-.79-.1-1.14995-.31-.72-.42-1.15-1.16-1.15-2v-3.35c0-.83.43-1.58 1.15-2 .72005-.42 1.57995-.42 2.30995 0l2.9 1.67c.72.42 1.15 1.16 1.15 2s-.43 1.59-1.1599 2.01z" fill="#e0e0e0"/></svg>

<!DOCTYPE svg PUBLIC "-//W3C//DTD SVG 1.1//EN" "http://www.w3.org/Graphics/SVG/1.1/DTD/svg11.dtd">
<!-- Uploaded to: SVG Repo, www.svgrepo.com, Transformed by: SVG Repo Mixer Tools -->
<svg width="64px" height="64px" viewBox="0 0 24 24" fill="none" xmlns="http://www.w3.org/2000/svg" stroke="#000000">
<g id="SVGRepo_bgCarrier" stroke-width="0"/>
<g id="SVGRepo_tracerCarrier" stroke-linecap="round" stroke-linejoin="round"/>
<g id="SVGRepo_iconCarrier"> <path d="M11.9688 2C6.44875 2 1.96875 6.48 1.96875 12C1.96875 17.52 6.44875 22 11.9688 22C17.4888 22 21.9688 17.52 21.9688 12C21.9688 6.48 17.4988 2 11.9688 2ZM14.9688 14.23L12.0687 15.9C11.7087 16.11 11.3088 16.21 10.9187 16.21C10.5188 16.21 10.1287 16.11 9.76875 15.9C9.04875 15.48 8.61875 14.74 8.61875 13.9V10.55C8.61875 9.72 9.04875 8.97 9.76875 8.55C10.4888 8.13 11.3487 8.13 12.0787 8.55L14.9787 10.22C15.6987 10.64 16.1287 11.38 16.1287 12.22C16.1287 13.06 15.6987 13.81 14.9688 14.23Z" fill="#e0e0e0"/> </g>
</svg>
